X: 22464
T: Lady Anne Montgomery
R: reel
M: 4/4
K: Dmajor
G|FADA FADA|FAdA BABd|FADF EDEF|DB,A,B, DDD D||
e|fefg fede|fedB ABde|fefg fede|fgaf ddd de|
fefg fede|fedB ABde|faef dBAg|fafe ddd d||

